Newaita-dark/.DP/22/mintupdate-error.svg

<?xml version="1.0" encoding="UTF-8"?>
<svg xmlns="http://www.w3.org/2000/svg" xmlns:xlink="http://www.w3.org/1999/xlink" width="22px" height="22px" viewBox="0 0 22 22" version="1.1">
<g id="surface1">
<path style=" stroke:none;fill-rule:nonzero;fill:rgb(93.725491%,32.549021%,31.37255%);fill-opacity:1;" d="M 10.914062 2.902344 C 10.070312 2.902344 9.496094 5.449219 8.714844 5.773438 C 7.929688 6.097656 5.726562 4.699219 5.125 5.296875 C 4.527344 5.898438 5.925781 8.101562 5.601562 8.886719 C 5.277344 9.667969 2.730469 10.242188 2.730469 11.085938 C 2.730469 11.933594 5.277344 12.507812 5.601562 13.289062 C 5.925781 14.070312 4.527344 16.277344 5.125 16.875 C 5.726562 17.472656 7.929688 16.078125 8.714844 16.402344 C 9.496094 16.726562 10.070312 19.273438 10.914062 19.273438 C 11.761719 19.273438 12.335938 16.726562 13.117188 16.402344 C 13.898438 16.078125 16.105469 17.472656 16.703125 16.875 C 17.300781 16.277344 15.90625 14.070312 16.230469 13.289062 C 16.554688 12.507812 19.101562 11.933594 19.101562 11.085938 C 19.101562 10.242188 16.554688 9.667969 16.230469 8.886719 C 15.90625 8.101562 17.300781 5.898438 16.703125 5.296875 C 16.105469 4.699219 13.898438 6.097656 13.117188 5.773438 C 12.335938 5.449219 11.761719 2.902344 10.914062 2.902344 Z M 8.34375 7.605469 C 8.574219 7.605469 8.808594 7.691406 8.984375 7.871094 L 10.914062 9.800781 L 12.84375 7.871094 C 13.199219 7.515625 13.773438 7.515625 14.132812 7.871094 C 14.488281 8.226562 14.488281 8.800781 14.132812 9.15625 L 12.203125 11.085938 L 14.132812 13.015625 C 14.488281 13.371094 14.488281 13.945312 14.132812 14.304688 C 13.773438 14.660156 13.199219 14.660156 12.84375 14.304688 L 10.914062 12.375 L 8.984375 14.304688 C 8.628906 14.660156 8.054688 14.660156 7.699219 14.304688 C 7.34375 13.945312 7.34375 13.371094 7.699219 13.015625 L 9.628906 11.085938 L 7.699219 9.15625 C 7.34375 8.800781 7.34375 8.226562 7.699219 7.871094 C 7.878906 7.691406 8.109375 7.605469 8.34375 7.605469 Z M 8.34375 7.605469 "/>
</g>
</svg>

<svg xmlns="http://www.w3.org/2000/svg" width="22pt" height="22pt" viewBox="0 0 22 22"><path d="M10.914 2.902c-1.328 0-.992 2.313-2.219 2.825-1.23.507-2.629-1.368-3.57-.43-.938.941.938 2.34.43 3.57-.512 1.227-2.825.89-2.825 2.219 0 1.332 2.313.992 2.825 2.223.508 1.226-1.367 2.629-.43 3.566.941.941 2.34-.934 3.57-.426 1.227.508.89 2.824 2.22 2.824 1.331 0 .991-2.316 2.222-2.824 1.226-.508 2.629 1.367 3.566.426.942-.938-.933-2.34-.426-3.566.508-1.23 2.825-.891 2.825-2.223 0-1.328-2.317-.992-2.825-2.219-.507-1.23 1.368-2.629.426-3.57-.937-.938-2.34.937-3.566.43-1.23-.512-.89-2.825-2.223-2.825zm-2.57 4.703c.23 0 .465.086.64.266l1.93 1.93 1.93-1.93a.912.912 0 0 1 1.289 0 .908.908 0 0 1 0 1.285l-1.93 1.93 1.93 1.93a.912.912 0 0 1-1.29 1.289l-1.929-1.93-1.93 1.93a.908.908 0 0 1-1.285 0 .912.912 0 0 1 0-1.29l1.93-1.93-1.93-1.929a.908.908 0 0 1 .645-1.55zm0 0" fill="#ef5350"/></svg>
